docs/img/img1/comma_bg.svg

<svg width="557" height="627" viewBox="0 0 557 627" fill="none" xmlns="http://www.w3.org/2000/svg">
<path d="M256.139 -3.86428e-05L99.6095 -5.2327e-05C73.8601 -5.45781e-05 54.8869 4.45862 42.6898 13.376C31.8479 23.408 26.4271 39.0132 26.4271 60.192L26.4271 127.072C26.4271 148.251 31.8479 163.299 42.6898 172.216C54.8868 182.248 73.8601 187.264 99.6095 187.264L239.876 187.264C257.494 187.264 271.046 191.165 280.533 198.968C290.02 207.885 294.763 219.589 294.763 234.08L294.763 259.16L73.1824 259.16C47.433 259.16 28.4598 263.619 16.2627 272.536C5.42086 282.568 2.87469e-05 298.173 2.68954e-05 319.352L5.26215e-06 566.808C3.41066e-06 587.987 5.42084 603.035 16.2627 611.952C28.4598 621.984 47.433 627 73.1824 627L483.817 627C509.567 627 527.862 621.984 538.704 611.952C550.901 603.035 557 587.987 557 566.808L557 252.472C557 167.757 529.218 104.221 473.653 61.8639C419.444 20.6213 346.939 -3.07048e-05 256.139 -3.86428e-05Z" fill="#FF7D04"/>
</svg>

<svg width="557" height="627" fill="none" xmlns="http://www.w3.org/2000/svg"><path d="M256.139 0H99.609C73.86 0 54.887 4.459 42.69 13.376 31.849 23.408 26.428 39.013 26.428 60.192v66.88c0 21.179 5.42 36.227 16.263 45.144 12.197 10.032 31.17 15.048 56.92 15.048h140.266c17.618 0 31.17 3.901 40.657 11.704 9.487 8.917 14.23 20.621 14.23 35.112v25.08H73.183c-25.75 0-44.723 4.459-56.92 13.376C5.42 282.568 0 298.173 0 319.352v247.456c0 21.179 5.42 36.227 16.263 45.144C28.46 621.984 47.433 627 73.183 627h410.634c25.75 0 44.045-5.016 54.887-15.048C550.901 603.035 557 587.987 557 566.808V252.472c0-84.715-27.782-148.251-83.347-190.608C419.444 20.62 346.939 0 256.139 0z" fill="#FF7D04"/></svg>
